icons/svg/youtube-shorts.svg

<svg width="24" height="24" viewBox="0 0 24 24" fill="none" xmlns="http://www.w3.org/2000/svg">
<path d="M12.8342 3.18648C14.5687 2.18504 16.7866 2.77934 17.7881 4.51388C18.7895 6.24841 18.1952 8.46636 16.4607 9.46779L15.7216 9.89449C17.0157 9.85255 18.2903 10.5068 18.9829 11.7065C19.9844 13.441 19.3901 15.6589 17.6555 16.6604L10.6352 20.7135C8.9007 21.715 6.68276 21.1207 5.68133 19.3861C4.67989 17.6516 5.27419 15.4337 7.00872 14.4322L7.74779 14.0055C6.4537 14.0475 5.17911 13.3933 4.48647 12.1936C3.48503 10.459 4.07933 8.24108 5.81386 7.23965L12.8342 3.18648Z" stroke="currentColor" stroke-width="1.5" stroke-linejoin="round"/>
<path d="M13.9924 11.016L11.2 9.2707C10.4599 8.80817 9.5 9.34022 9.5 10.2129L9.5 13.7035C9.5 14.5762 10.4599 15.1082 11.2 14.6457L13.9924 12.9004C14.6887 12.4652 14.6887 11.4512 13.9924 11.016Z" fill="currentColor"/>
</svg>

<svg xmlns="http://www.w3.org/2000/svg" width="24" height="24" fill="none" viewBox="0 0 24 24"><path stroke="currentColor" stroke-linejoin="round" stroke-width="1.5" d="M12.834 3.186a3.627 3.627 0 0 1 3.627 6.282l-.74.426a3.626 3.626 0 0 1 1.935 6.766l-7.02 4.053a3.626 3.626 0 1 1-3.627-6.28l.739-.428A3.627 3.627 0 0 1 5.814 7.24z"/><path fill="currentColor" d="M13.992 11.016 11.2 9.271c-.74-.463-1.7.07-1.7.942v3.49c0 .873.96 1.405 1.7.943l2.792-1.746a1.11 1.11 0 0 0 0-1.884"/></svg>
